X:1
T:The Twa Brothers
M:3/4
L:1/4
K:F
B/2-c/2| d2 d| c d2| G3/2 G/2- F| D2 z| B/2- c| d2 d|c/2-A/2 F2| c2 z|\
 A/2- c| d2 d| c d3/2 d/2| G2G/2-F/2| D2 z| B- A| G2G/2-F/2| D2B/2-A/2|\
 G2||
